dist/assets/images/ico/ico_3d.svg

<svg width="21" height="20" viewBox="0 0 21 20" fill="none" xmlns="http://www.w3.org/2000/svg">
<rect x="0.75" y="0.25" width="19.5" height="19.5" rx="0.75" fill="#D6CBB6"/>
<rect x="0.75" y="0.25" width="19.5" height="19.5" rx="0.75" stroke="url(#paint0_linear_1011_8007)" stroke-width="0.5"/>
<rect x="0.75" y="0.25" width="19.5" height="19.5" rx="0.75" stroke="#534731" stroke-width="0.5"/>
<path d="M11.2559 5.04102C13.3787 3.79129 15.5509 3.61775 16.7148 4.79395C17.9155 6.00748 17.6948 8.30325 16.3535 10.5137L16.9609 11.1309L13.9375 12L14.8086 8.94531L15.5352 9.68262C16.5462 7.87318 16.6866 6.05319 15.7246 5.08105C14.8221 4.16602 13.1788 4.23693 11.498 5.09863C12.0017 5.2457 12.4304 5.56403 12.7764 6.05273C13.2567 6.73003 13.5 7.55323 13.5 8.4873C13.4999 9.42126 13.2565 10.244 12.7793 10.9287C12.2806 11.6393 11.6154 12 10.8027 12H8.5V11.5498C8.06972 11.8462 7.56043 12 6.99219 12C6.98151 12 6.9706 11.9982 6.95996 11.998C7.04459 12.469 7.23557 12.8796 7.54102 13.1982C8.70084 14.4081 11.1093 13.9081 13.2031 12.1309V12.5381L14.5 12.4561C11.9512 14.9684 8.75934 15.7569 7.26758 14.2012L7.26074 14.2051C6.72692 13.6482 6.48372 12.8602 6.50098 11.959C6.01662 11.876 5.58649 11.6665 5.21777 11.335C4.70792 10.8778 4.45959 10.2555 4.50488 9.53809L4.53613 9.04199H6.04199V7.78906H4.68652L4.65527 7.29395C4.61685 6.65374 4.8368 6.07974 5.29785 5.64355C5.74486 5.21803 6.30722 5.00006 6.9707 5V5.00391C7.57675 5.00391 8.08978 5.17197 8.5 5.50098V5H10.8213L10.8184 5.00391C10.9694 5.00392 11.1153 5.01628 11.2559 5.04102ZM6.9707 5.52051C6.44341 5.52056 6.00645 5.68639 5.65723 6.02051C5.30824 6.3511 5.15078 6.76613 5.17871 7.25488H6.1748C6.16084 7.03683 6.22362 6.84343 6.36328 6.68164C6.4995 6.51983 6.70202 6.43848 6.98145 6.43848C7.26087 6.43848 7.45978 6.51983 7.58203 6.68164C7.70424 6.84341 7.76045 7.00854 7.75 7.17383C7.74651 7.32157 7.70755 7.44116 7.6377 7.53613C7.56786 7.63104 7.48406 7.70546 7.38281 7.76172C7.26775 7.82136 7.14222 7.86367 7.00977 7.88477C6.87709 7.90938 6.72659 7.91991 6.5625 7.91992V8.85156C6.68818 8.85157 6.81419 8.85488 6.94336 8.8584C7.07249 8.86194 7.20528 8.8838 7.33789 8.91895C7.52638 8.98578 7.67261 9.08788 7.77734 9.22852C7.88213 9.36922 7.92803 9.52725 7.91406 9.70312C7.89309 9.9247 7.80225 10.1115 7.6416 10.2627C7.48095 10.4138 7.27125 10.4912 6.98145 10.4912C6.69154 10.4912 6.45743 10.4061 6.2793 10.2373C6.10134 10.0685 6.02105 9.8467 6.04199 9.56543H5.0293C4.99438 10.1281 5.17546 10.5858 5.56641 10.9375C5.84816 11.1934 6.17074 11.3537 6.54004 11.4248C6.55635 11.2933 6.57734 11.1601 6.60352 11.0254C6.71638 11.0254 6.82611 11.0178 6.92871 11C6.91344 11.1586 6.9095 11.3139 6.91211 11.4648C6.93852 11.4656 6.96534 11.4688 6.99219 11.4688C7.55786 11.4687 8.03301 11.2968 8.41016 10.9521C8.44189 10.9229 8.47093 10.8916 8.5 10.8613V8.66016C8.37844 8.54284 8.24517 8.44513 8.0957 8.37305C8.24141 8.29377 8.37578 8.17416 8.5 8.01855V6.25293C8.43964 6.17031 8.37005 6.08977 8.29102 6.0127C8.00079 5.72979 7.62769 5.57059 7.17188 5.53516L6.9707 5.52051ZM8.96191 6C9.19492 6.33946 9.31445 6.71946 9.31445 7.13184C9.31443 7.56441 9.20603 7.93699 9 8.23242C8.98681 8.24903 8.97428 8.26562 8.96191 8.28223V8.38477C9.02906 8.45738 9.09276 8.53595 9.15039 8.62012C9.38427 8.9507 9.5 9.31669 9.5 9.70703C9.4999 10.2523 9.31752 10.7319 8.96191 11.1387V11.4414H10.8027C11.4801 11.4414 12.0223 11.1516 12.4287 10.5674C12.8381 9.98317 13.041 9.28713 13.041 8.4834C13.041 7.67962 12.8351 6.98714 12.4287 6.41406C12.0223 5.84099 11.4863 5.55862 10.8213 5.55859H8.96191V6ZM10.6641 6.60059C11.1012 6.60059 11.4434 6.77114 11.6836 7.11719C11.9237 7.45956 12.0439 7.92146 12.0439 8.4834C12.0439 9.04503 11.9235 9.5063 11.6836 9.86719C11.4434 10.2282 11.1013 10.4072 10.6641 10.4072H9.88867V6.60059H10.6641ZM6.56543 9.6084C6.5551 9.7761 6.61061 9.82919 6.63867 9.85742C6.69106 9.90315 6.78277 9.9668 6.98535 9.9668H6.98828C7.19785 9.9668 7.26461 9.90001 7.28906 9.87891C7.35527 9.81569 7.39043 9.74888 7.39746 9.66113C7.40095 9.6154 7.39318 9.58303 7.36523 9.54785C7.34073 9.51621 7.29542 9.46719 7.19141 9.42871C7.10409 9.40761 7.01254 9.38965 6.92871 9.38965C6.81008 9.38263 6.69467 9.38281 6.58301 9.38281L6.56543 9.6084ZM8.96191 9.91309C8.97012 9.84456 8.97558 9.7747 8.97559 9.70312C8.97559 9.63854 8.97074 9.5751 8.96191 9.5127V9.91309ZM10.3535 9.8457H10.667C11.058 9.8457 11.2307 9.65509 11.3262 9.51367C11.5015 9.25324 11.5849 8.91484 11.585 8.4834C11.585 8.05171 11.5014 7.72041 11.332 7.47852C11.2335 7.34084 11.0611 7.1582 10.6641 7.1582H10.3535V9.8457ZM6.98535 6.97363C6.9051 6.97363 6.80371 6.98409 6.76172 7.0332C6.72331 7.07892 6.69519 7.13165 6.70215 7.22656L6.71289 7.3916V7.39941C6.7895 7.3924 6.86252 7.38454 6.92871 7.37402C7.0089 7.35998 7.07893 7.33569 7.13477 7.30762C7.16969 7.29003 7.1943 7.26506 7.21875 7.2334C7.21974 7.23157 7.22949 7.21234 7.22949 7.15234C7.23269 7.10681 7.19482 7.04736 7.16699 7.00879C7.16001 6.99825 7.10382 6.97369 6.98535 6.97363Z" fill="black"/>
<defs>
<linearGradient id="paint0_linear_1011_8007" x1="10.5" y1="0" x2="10.5" y2="20" gradientUnits="userSpaceOnUse">
<stop stop-color="#A39C90"/>
<stop offset="0.53006" stop-color="#F2F1F0"/>
<stop offset="1" stop-color="#A39C90"/>
</linearGradient>
</defs>
</svg>

<svg width="21" height="20" fill="none" xmlns="http://www.w3.org/2000/svg"><rect x=".75" y=".25" width="19.5" height="19.5" rx=".75" fill="#D6CBB6"/><rect x=".75" y=".25" width="19.5" height="19.5" rx=".75" stroke="url(#paint0_linear_1011_8007)" stroke-width=".5"/><rect x=".75" y=".25" width="19.5" height="19.5" rx=".75" stroke="#534731" stroke-width=".5"/><path d="M11.256 5.041c2.123-1.25 4.295-1.423 5.459-.247 1.2 1.213.98 3.51-.361 5.72l.607.617-3.023.869.87-3.055.727.738c1.011-1.81 1.152-3.63.19-4.602-.903-.915-2.546-.844-4.227.018.504.147.932.465 1.278.954.48.677.724 1.5.724 2.434 0 .934-.243 1.757-.72 2.442-.5.71-1.165 1.071-1.977 1.071H8.5v-.45c-.43.296-.94.45-1.508.45l-.032-.002c.085.471.276.882.581 1.2 1.16 1.21 3.568.71 5.662-1.067v.407l1.297-.082c-2.549 2.512-5.74 3.3-7.232 1.745l-.007.004c-.534-.557-.777-1.345-.76-2.246a2.528 2.528 0 01-1.283-.624c-.51-.457-.758-1.08-.713-1.797l.031-.496h1.506V7.789H4.687l-.032-.495a2.04 2.04 0 01.643-1.65C5.745 5.218 6.308 5 6.97 5v.004c.606 0 1.119.168 1.529.497V5h2.321l-.003.004c.151 0 .297.012.438.037zm-4.285.48c-.528 0-.965.165-1.314.5-.349.33-.506.745-.478 1.234h.996a.773.773 0 01.188-.573c.136-.162.339-.244.618-.244.28 0 .479.082.601.244a.733.733 0 01.168.492.62.62 0 01-.112.362.785.785 0 01-.255.226c-.115.06-.24.102-.373.123a2.485 2.485 0 01-.447.035v.932c.125 0 .251.003.38.006.13.004.262.026.395.061a.906.906 0 01.44.31.68.68 0 01.136.474.855.855 0 01-.272.56c-.161.15-.37.228-.66.228-.29 0-.525-.085-.703-.254-.178-.168-.258-.39-.237-.672H5.029c-.035.563.146 1.02.537 1.373.282.255.605.416.974.487.016-.132.037-.265.064-.4.112 0 .222-.007.325-.025a4.1 4.1 0 00-.017.465c.027 0 .053.004.08.004.566 0 1.041-.172 1.418-.517.032-.03.06-.06.09-.09V8.66a1.555 1.555 0 00-.404-.287c.145-.08.28-.199.404-.354V6.253a1.909 1.909 0 00-.209-.24c-.29-.283-.663-.442-1.12-.478l-.2-.014zM8.96 6c.234.34.353.72.353 1.132 0 .432-.108.805-.314 1.1a2.012 2.012 0 00-.038.05v.103c.067.072.13.15.188.235.234.33.35.697.35 1.087 0 .545-.182 1.025-.538 1.432v.302h1.84c.678 0 1.22-.29 1.627-.874.41-.584.612-1.28.612-2.084 0-.803-.206-1.496-.612-2.069-.407-.573-.943-.855-1.608-.855H8.96V6zm1.703.6c.437 0 .78.171 1.02.517.24.343.36.804.36 1.366s-.12 1.023-.36 1.384-.583.54-1.02.54H9.89V6.601h.775zM6.565 9.609c-.01.168.046.221.074.25.052.045.144.109.346.109h.003c.21 0 .277-.067.301-.088a.32.32 0 00.108-.218.146.146 0 00-.032-.113.362.362 0 00-.174-.12 1.158 1.158 0 00-.262-.038c-.119-.007-.234-.007-.346-.007l-.018.225zm2.397.305a1.357 1.357 0 000-.4v.4zm1.392-.067h.313c.391 0 .564-.19.66-.332.175-.26.258-.6.258-1.03 0-.432-.084-.764-.253-1.005-.099-.138-.27-.32-.668-.32h-.31v2.687zM6.985 6.974c-.08 0-.181.01-.223.06a.243.243 0 00-.06.193l.01.165v.007c.078-.007.15-.014.217-.025a.751.751 0 00.206-.066.243.243 0 00.084-.075c0-.001.01-.02.01-.08.004-.046-.034-.106-.062-.144-.007-.01-.063-.035-.182-.035z" fill="#000"/><defs><linearGradient id="paint0_linear_1011_8007" x1="10.5" y1="0" x2="10.5" y2="20" gradientUnits="userSpaceOnUse"><stop stop-color="#A39C90"/><stop offset=".53" stop-color="#F2F1F0"/><stop offset="1" stop-color="#A39C90"/></linearGradient></defs></svg>
